art/worksheet/prodSign.svg

<?xml version="1.0" encoding="UTF-8" standalone="no"?>
<!-- Created with Inkscape (http://www.inkscape.org/) -->

<svg
   version="1.0"
   width="140"
   height="140"
   id="svg2"
   sodipodi:docname="prodSign.svg"
   inkscape:version="1.2.2 (b0a8486541, 2022-12-01)"
   xmlns:inkscape="http://www.inkscape.org/namespaces/inkscape"
   xmlns:sodipodi="http://sodipodi.sourceforge.net/DTD/sodipodi-0.dtd"
   xmlns="http://www.w3.org/2000/svg"
   xmlns:svg="http://www.w3.org/2000/svg">
  <sodipodi:namedview
     id="namedview5"
     pagecolor="#ffffff"
     bordercolor="#cccccc"
     borderopacity="1"
     inkscape:showpageshadow="0"
     inkscape:pageopacity="1"
     inkscape:pagecheckerboard="0"
     inkscape:deskcolor="#d1d1d1"
     showgrid="false"
     inkscape:zoom="1"
     inkscape:cx="128.5"
     inkscape:cy="128.5"
     inkscape:window-width="1366"
     inkscape:window-height="716"
     inkscape:window-x="0"
     inkscape:window-y="0"
     inkscape:window-maximized="1"
     inkscape:current-layer="svg2" />
  <defs
     id="defs4" />
  <path
     fill="currentColor"
     d="M 138.3,136.2 H 82.699998 v -3.8 c 7.73324,-0.4 12.5999,-1.86666 14.6,-4.4 1.9999,-2.53333 2.999902,-7.79999 3.000002,-15.8 V 12.6 H 39.7 v 101.8 c -4.2e-5,7.06668 1.13329,11.73334 3.399998,14 2.26662,2.26667 6.99995,3.6 14.2,4 v 3.8 H 1.7 v -3.8 c 7.733321,-0.4 12.599983,-1.86666 14.6,-4.4 1.999979,-2.53333 2.999978,-7.79999 3,-15.8 V 25.6 C 19.299978,18.266785 18.233313,13.600123 16.1,11.6 13.96665,9.600127 9.166655,8.266795 1.7,7.6 V 3.8 h 136.6 v 3.8 c -7.33346,0.533461 -12.13346,1.866793 -14.4,4 -2.13346,2.133456 -3.20012,6.800118 -3.2,14 v 88.8 c -1.2e-4,7.06668 1.13321,11.73334 3.4,14 2.26654,2.26667 6.99987,3.6 14.2,4 v 3.8"
     id="text2436"
     style="font-style:normal;font-variant:normal;font-weight:normal;font-stretch:normal;font-size:200px;line-height:125%;font-family:FreeSerif;-inkscape-font-specification:FreeSerif;text-align:start;writing-mode:lr-tb;text-anchor:start;stroke:none;stroke-width:1px;stroke-linecap:butt;stroke-linejoin:miter;stroke-opacity:1" />
</svg>

<?xml version="1.0" encoding="UTF-8"?>
<svg width="140" height="140" version="1.0" xmlns="http://www.w3.org/2000/svg"><rect x="-19.509" y="-13.515" width="191.93" height="174.66" fill="currentBackground" stroke="currentBackground" stroke-width=".37795"/><path d="m138.3 136.2h-55.6v-3.8c7.7332-0.4 12.6-1.8667 14.6-4.4 1.9999-2.5333 2.9999-7.8 3-15.8v-99.6h-60.6v101.8c-4.2e-5 7.0667 1.1333 11.733 3.4 14 2.2666 2.2667 7 3.6 14.2 4v3.8h-55.6v-3.8c7.7333-0.4 12.6-1.8667 14.6-4.4 2-2.5333 3-7.8 3-15.8v-86.6c-2.2e-5 -7.3332-1.0667-12-3.2-14-2.1334-1.9999-6.9333-3.3332-14.4-4v-3.8h136.6v3.8c-7.3335 0.53346-12.133 1.8668-14.4 4-2.1335 2.1335-3.2001 6.8001-3.2 14v88.8c-1.2e-4 7.0667 1.1332 11.733 3.4 14 2.2665 2.2667 6.9999 3.6 14.2 4v3.8" fill="currentColor"/></svg>
